dist/assets/images/logo.svg

<svg width="146" height="106" viewBox="0 0 146 106" fill="none" xmlns="http://www.w3.org/2000/svg">
<path d="M19.1196 68.4784C19.1196 67.2453 18.6901 66.1961 17.8421 65.3416C16.994 64.4872 15.9526 64.0545 14.7288 64.0545C13.505 64.0545 12.4637 64.4872 11.5834 65.3416C10.7138 66.1961 10.2737 67.2453 10.2737 68.4784C10.2737 69.7114 10.7138 70.7714 11.5834 71.6476C12.4529 72.5237 13.505 72.9672 14.7288 72.9672C15.9526 72.9672 16.9832 72.5237 17.8421 71.6476C18.6901 70.7714 19.1196 69.7114 19.1196 68.4784ZM24.4121 67.8186C24.4121 70.7174 23.3707 73.1835 21.2773 75.217C19.184 77.2504 16.7041 78.2672 13.8163 78.2672C10.9285 78.2672 8.44867 77.2504 6.35529 75.217C4.2619 73.1835 3.22058 70.7282 3.22058 67.8186C3.22058 64.9198 4.25117 62.4645 6.32308 60.4635C8.38426 58.4625 10.8856 57.4565 13.8163 57.4565C16.7471 57.4565 19.2484 58.4625 21.3096 60.4635C23.3707 62.4753 24.4121 64.9198 24.4121 67.8186Z" fill="#0056A4"/>
<path d="M39.6562 59.0139C39.8709 62.2047 39.9675 66.1094 39.9675 70.7064C39.9675 75.2384 39.8602 78.8294 39.6562 81.4902L39.3449 85.4923C39.259 86.7037 38.8725 87.8827 38.1747 89.04C37.4769 90.1974 36.4141 90.7923 34.9756 90.8247C33.6659 90.868 32.5494 90.2839 31.6262 89.0725C30.864 88.0666 30.4453 86.866 30.3594 85.5031C29.8978 80.1707 29.6616 75.1951 29.6616 70.5982C29.6616 66.1094 29.7904 62.2913 30.0374 59.1437L30.3594 54.417C30.6171 51.2262 32.0878 49.5929 34.7824 49.5064C36.0921 49.4631 37.1549 49.8958 37.9707 50.8043C38.7974 51.7129 39.2482 52.8702 39.3341 54.2872L39.6562 59.0139Z" fill="#0056A4"/>
<path d="M75.7697 61.9559C76.9184 62.0532 77.7128 62.421 78.1315 63.0592C78.5609 63.6973 78.797 64.422 78.8507 65.2224C79.001 67.3532 78.0456 68.5214 75.9951 68.7161C73.1395 69.019 70.2518 69.1488 67.3532 69.0947C64.197 69.0406 61.5669 68.9108 59.4628 68.7161C58.2604 68.6188 57.262 68.0996 56.4569 67.1586C55.6518 66.2175 55.2545 65.1467 55.2545 63.9245V59.2843C55.2975 57.4563 56.5857 55.9637 58.1101 55.7149C59.5057 55.4769 62.737 55.1524 64.9485 54.7955C65.9362 54.6332 66.5051 54.1898 66.6018 53.2812C66.6984 52.4159 66.0757 51.8318 64.7231 51.529C63.8213 51.3235 62.4901 51.1504 60.7403 50.999L57.9598 50.7718C56.4032 50.6745 55.7054 49.9065 55.8557 48.4896C56.0597 47.6784 56.5535 47.17 57.3587 46.9645C58.561 46.6075 61.7387 46.4561 66.9023 46.5102C70.6597 46.6075 72.7209 46.6941 73.6226 46.7914C75.5228 46.9969 76.7144 47.6026 77.1868 48.4247C77.8309 49.5496 77.9704 51.8535 78.0241 52.9675C78.067 54.8388 77.9167 56.18 77.5732 56.9912C77.0687 58.1053 75.9737 58.7651 74.2667 58.9706L69.7579 59.5006C68.4482 59.652 67.6968 60.0522 67.6538 60.712C67.6001 61.5665 68.6415 61.7504 69.9082 61.772C71.3467 61.8369 74.8679 61.9559 75.7697 61.9559Z" fill="#0056A4"/>
<path d="M72.7423 96.0492V94.1347C72.7423 92.0688 71.7654 91.0412 69.8116 91.0412H65.3779C63.3382 91.0412 62.3184 92.0688 62.3184 94.1347V96.0492C62.3184 98.2449 63.3382 99.3373 65.3779 99.3373H69.672C71.7225 99.3373 72.7423 98.2449 72.7423 96.0492ZM88.2226 75.271C88.2226 77.1639 86.5479 78.2563 83.1878 78.57C79.4734 78.8837 76.4138 78.9161 74.5781 78.9161C70.7993 78.9161 70.7456 81.2092 70.7348 83.0588C70.7348 84.2377 71.3468 85.7737 74.7391 86.282C76.7251 86.5849 77.8631 88.2506 77.8631 91.0953V99.4022C77.8631 100.679 77.4337 101.717 76.5856 102.539C75.7375 103.35 74.6747 103.761 73.4187 103.761H60.2572C59.0334 103.761 58.0028 103.339 57.1547 102.507C56.3066 101.663 55.8772 100.635 55.8772 99.4022V90.7059C55.8343 88.759 56.7145 86.8877 58.561 86.5524C61.0731 86.109 63.1557 85.2004 63.1235 83.0588C63.0913 80.69 62.941 79.3271 60.064 78.9702C59.452 78.8837 56.371 78.7755 53.451 78.6457L49.4575 78.5159C48.3625 78.4726 47.2997 78.1914 46.2476 77.6614C44.9809 77.0016 44.326 76.1904 44.2831 75.2277C44.2401 74.2651 44.895 73.4755 46.2476 72.859C47.246 72.4155 48.3195 72.1775 49.4575 72.1343L61.2985 71.6692C65.9147 71.6259 69.3822 71.6259 71.701 71.6692C74.2775 71.6259 76.7573 71.6908 79.162 71.8639L83.1878 72.1235C86.5479 72.3614 88.2226 73.4214 88.2226 75.271Z" fill="#0056A4"/>
<path d="M115.555 95.4434H111.25V72.21H115.555V95.4434ZM105.141 95.4434V81.4363H101.073V78.5159H105.141V72.21H109.446V95.4326H105.141V95.4434ZM99.9885 100.711H116.263V103.631H98.6037C97.7019 103.631 96.9397 103.329 96.3278 102.723C95.7159 102.117 95.4153 101.284 95.4153 100.213V93.3451H99.9885V100.711ZM99.3444 73.0428V77.8993C99.3444 80.7549 99.8919 83.1561 100.987 85.0922C102.082 87.0283 103.467 88.2506 105.141 88.7589L103.113 90.7275C101.867 90.522 100.622 89.8514 99.3659 88.7157C98.1099 87.58 97.3584 86.3469 97.1115 85.0381C96.886 86.3577 96.1346 87.58 94.8785 88.7157C93.6118 89.8514 92.345 90.522 91.0782 90.7275L88.9741 88.7589C90.6703 88.2506 92.0766 87.0283 93.1824 85.0922C94.2881 83.1561 94.8463 80.7549 94.8463 77.8993V73.0428H99.3444Z" fill="#0056A4"/>
<path d="M134.331 80.9063H139.044V72.21H143.617V103.631H139.044V83.8267H134.331V80.9063ZM135.254 73.2375V76.1255H125.893V81.2524H133.118V84.1728H125.893V89.6351H136.907V92.523H124.433C123.488 92.523 122.726 92.2202 122.157 91.6144C121.588 91.0087 121.309 90.1975 121.309 89.1808V73.2375H135.254Z" fill="#0056A4"/>
<path d="M102.114 37.2513C103.252 36.3102 104.573 35.6072 105.818 35.3692L115.426 33.5629C118.024 33.0762 118.475 31.2698 116.414 29.55L108.824 23.1792C108.04 22.5194 107.353 21.5892 106.827 20.54C101.685 23.0386 96.9719 24.4664 92.8281 25.2343C95.2006 29.6258 98.9043 33.9523 102.114 37.2513Z" fill="#F07F13"/>
<path d="M76.0703 24.9858C75.9629 25.1156 75.8663 25.2454 75.7482 25.3644L68.9957 32.6871C67.1707 34.6664 67.8256 36.3971 70.4665 36.5377L80.2141 37.0677C81.964 37.165 83.9393 38.106 85.4422 39.4364C89.1781 34.5475 91.4754 29.7234 92.8174 25.2454C84.519 26.7813 78.5287 25.6456 76.0703 24.9858Z" fill="#0056A4"/>
<path d="M92.8281 25.2454C96.9719 24.4774 101.685 23.0388 106.827 20.5511C105.968 18.8421 105.517 16.8086 105.743 15.1321L107.063 5.08373C107.428 2.36883 105.904 1.37373 103.692 2.86638L95.5012 8.39353C95.1147 8.65312 94.6746 8.86944 94.2022 9.05332C94.7282 13.2609 94.7282 18.9178 92.8281 25.2454Z" fill="#FDC400"/>
<path d="M94.2022 9.0535C93.6332 9.28064 93.0106 9.44289 92.3665 9.55105C90.5629 9.84309 88.6091 9.65922 87.1599 8.93452L78.3676 4.52146C75.9951 3.33167 74.6103 4.52146 75.2974 7.16064L77.8309 16.9494C78.475 19.4372 77.6913 22.9308 76.0703 24.9751C78.5287 25.6349 84.519 26.7706 92.8174 25.2347C94.7282 18.918 94.7282 13.2611 94.2022 9.0535Z" fill="#90BA1E"/>
<path d="M92.8281 25.2451C91.4862 29.7339 89.1781 34.5472 85.4529 39.4361C86.2259 40.1176 86.87 40.8963 87.2887 41.7184L91.9049 50.6419C93.1501 53.0647 94.9429 52.9349 95.8876 50.3823L99.3874 40.918C99.8704 39.5876 100.89 38.2896 102.114 37.2621C98.9043 33.9523 95.1899 29.6257 92.8281 25.2451Z" fill="#AF1280"/>
</svg>

<svg width="146" height="106" fill="none" xmlns="http://www.w3.org/2000/svg"><path d="M19.12 68.478c0-1.233-.43-2.282-1.278-3.136-.848-.855-1.89-1.287-3.113-1.287-1.224 0-2.265.432-3.146 1.287-.87.854-1.31 1.903-1.31 3.136s.44 2.293 1.31 3.17c.87.876 1.922 1.32 3.146 1.32s2.254-.444 3.113-1.32c.848-.877 1.278-1.937 1.278-3.17zm5.292-.66c0 2.9-1.041 5.365-3.135 7.399-2.093 2.033-4.573 3.05-7.46 3.05-2.889 0-5.368-1.017-7.462-3.05-2.093-2.034-3.134-4.489-3.134-7.398 0-2.9 1.03-5.355 3.102-7.355 2.061-2.002 4.563-3.008 7.493-3.008 2.931 0 5.432 1.006 7.494 3.008 2.06 2.011 3.102 4.456 3.102 7.355zm15.244-8.804c.215 3.19.312 7.095.312 11.692 0 4.532-.108 8.123-.312 10.784l-.311 4.002c-.086 1.212-.472 2.39-1.17 3.548-.698 1.157-1.76 1.752-3.2 1.785-1.31.043-2.426-.541-3.349-1.752-.762-1.006-1.18-2.207-1.267-3.57-.461-5.332-.697-10.308-.697-14.905 0-4.489.128-8.307.375-11.454l.322-4.727c.258-3.19 1.729-4.824 4.423-4.91 1.31-.044 2.373.389 3.189 1.297.826.909 1.277 2.066 1.363 3.483l.322 4.727zm36.114 2.942c1.148.097 1.943.465 2.362 1.103.429.638.665 1.363.719 2.163.15 2.131-.805 3.3-2.856 3.494a69.632 69.632 0 01-8.642.379c-3.156-.054-5.786-.184-7.89-.379-1.203-.097-2.201-.616-3.006-1.557-.805-.942-1.203-2.012-1.203-3.235v-4.64c.044-1.828 1.332-3.32 2.856-3.57 1.396-.237 4.627-.562 6.838-.919.988-.162 1.557-.605 1.654-1.514.096-.865-.526-1.45-1.879-1.752-.902-.206-2.233-.379-3.983-.53l-2.78-.227c-1.557-.097-2.255-.865-2.104-2.282.204-.812.697-1.32 1.503-1.526 1.202-.356 4.38-.508 9.543-.454 3.758.098 5.819.184 6.72.281 1.9.206 3.092.812 3.565 1.634.644 1.125.783 3.428.837 4.543.043 1.87-.107 3.212-.45 4.023-.505 1.114-1.6 1.774-3.307 1.98l-4.51.53c-1.309.151-2.06.551-2.103 1.211-.054.854.987 1.038 2.254 1.06 1.439.065 4.96.184 5.862.184zM72.742 96.05v-1.915c0-2.066-.977-3.094-2.93-3.094h-4.434c-2.04 0-3.06 1.028-3.06 3.094v1.914c0 2.196 1.02 3.288 3.06 3.288h4.294c2.05 0 3.07-1.092 3.07-3.288zm15.48-20.779c0 1.893-1.674 2.985-5.034 3.299a101.1 101.1 0 01-8.61.346c-3.779 0-3.832 2.293-3.843 4.143 0 1.179.612 2.715 4.004 3.223 1.986.303 3.124 1.969 3.124 4.813v8.307c0 1.277-.43 2.315-1.277 3.137-.849.811-1.911 1.222-3.167 1.222H60.257c-1.224 0-2.254-.422-3.102-1.254-.848-.844-1.278-1.872-1.278-3.105v-8.696c-.043-1.947.837-3.818 2.684-4.154 2.512-.443 4.595-1.352 4.563-3.493-.033-2.369-.183-3.732-3.06-4.089-.612-.086-3.693-.195-6.613-.324l-3.993-.13c-1.096-.043-2.158-.325-3.21-.855-1.267-.66-1.922-1.47-1.965-2.433-.043-.963.612-1.752 1.965-2.369a8.647 8.647 0 013.21-.725l11.84-.465c4.617-.043 8.084-.043 10.403 0a84.11 84.11 0 017.461.195l4.026.26c3.36.237 5.035 1.297 5.035 3.147zm27.333 20.172h-4.305V72.21h4.305v23.233zm-10.414 0V81.436h-4.068v-2.92h4.068V72.21h4.305v23.223h-4.305v.01zm-5.153 5.268h16.275v2.92h-17.66c-.901 0-1.663-.302-2.275-.908-.612-.606-.913-1.439-.913-2.51v-6.868h4.573v7.366zm-.644-27.668v4.856c0 2.856.548 5.257 1.643 7.193s2.48 3.159 4.154 3.667l-2.028 1.969c-1.246-.206-2.491-.877-3.747-2.012-1.256-1.136-2.008-2.37-2.254-3.678-.226 1.32-.977 2.542-2.233 3.678-1.267 1.135-2.534 1.806-3.8 2.012l-2.105-1.97c1.696-.507 3.103-1.73 4.208-3.666 1.106-1.936 1.664-4.337 1.664-7.193v-4.856h4.498zm34.987 7.863h4.713V72.21h4.573v31.421h-4.573V83.827h-4.713v-2.92zm.923-7.669v2.889h-9.361v5.126h7.225v2.92h-7.225v5.463h11.014v2.888h-12.474c-.945 0-1.707-.303-2.276-.909-.569-.605-.848-1.416-.848-2.433V73.237h13.945z" fill="#0056A4"/><path d="M102.114 37.251c1.138-.94 2.459-1.644 3.704-1.882l9.608-1.806c2.598-.487 3.049-2.293.988-4.013l-7.59-6.37c-.784-.66-1.471-1.59-1.997-2.64-5.142 2.499-9.855 3.926-13.999 4.694 2.373 4.392 6.076 8.718 9.286 12.017z" fill="#F07F13"/><path d="M76.07 24.986c-.107.13-.204.26-.322.378l-6.752 7.323c-1.825 1.98-1.17 3.71 1.47 3.85l9.748.53c1.75.098 3.725 1.039 5.228 2.37 3.736-4.89 6.033-9.714 7.375-14.192-8.298 1.536-14.288.4-16.747-.26z" fill="#0056A4"/><path d="M92.828 25.245c4.144-.768 8.857-2.206 13.999-4.694-.859-1.709-1.31-3.742-1.084-5.419l1.32-10.048c.365-2.715-1.159-3.71-3.371-2.218l-8.19 5.528c-.387.26-.827.475-1.3.66a39.308 39.308 0 01-1.374 16.191z" fill="#FDC400"/><path d="M94.202 9.053a8.989 8.989 0 01-1.835.498c-1.804.292-3.758.108-5.207-.616L78.368 4.52c-2.373-1.19-3.758 0-3.07 2.64l2.533 9.788c.644 2.488-.14 5.982-1.76 8.026 2.458.66 8.448 1.796 16.746.26a39.094 39.094 0 001.385-16.181z" fill="#90BA1E"/><path d="M92.828 25.245c-1.342 4.489-3.65 9.302-7.375 14.191.773.682 1.417 1.46 1.836 2.282l4.616 8.924c1.245 2.423 3.038 2.293 3.983-.26l3.5-9.464c.482-1.33 1.502-2.628 2.726-3.656-3.21-3.31-6.924-7.636-9.286-12.017z" fill="#AF1280"/></svg>
